packages/react-icons/icons/columns.svg

<svg width="24" height="24" viewBox="0 0 24 24" xmlns="http://www.w3.org/2000/svg">
<path fill-rule="evenodd" clip-rule="evenodd" d="M7 5.93333C7 5.01789 7.66865 4 8.8 4H15.2C16.3314 4 17 5.01789 17 5.93333V18.0667C17 18.9821 16.3314 20 15.2 20H8.8C7.66865 20 7 18.9821 7 18.0667V5.93333ZM9 6V18H15V6H9ZM3 17.5H5C5.55 17.5 6 17.05 6 16.5V7.5C6 6.95 5.55 6.5 5 6.5H3C2.45 6.5 2 6.95 2 7.5V16.5C2 17.05 2.45 17.5 3 17.5ZM18 16.5V7.5C18 6.95 18.45 6.5 19 6.5H21C21.55 6.5 22 6.95 22 7.5V16.5C22 17.05 21.55 17.5 21 17.5H19C18.45 17.5 18 17.05 18 16.5Z" />
</svg>

<svg xmlns="http://www.w3.org/2000/svg" width="24" height="24"><path fill-rule="evenodd" d="M7 5.933C7 5.018 7.669 4 8.8 4h6.4C16.331 4 17 5.018 17 5.933v12.134c0 .915-.669 1.933-1.8 1.933H8.8C7.669 20 7 18.982 7 18.067V5.933ZM9 6v12h6V6H9ZM3 17.5h2c.55 0 1-.45 1-1v-9c0-.55-.45-1-1-1H3c-.55 0-1 .45-1 1v9c0 .55.45 1 1 1Zm15-1v-9c0-.55.45-1 1-1h2c.55 0 1 .45 1 1v9c0 .55-.45 1-1 1h-2c-.55 0-1-.45-1-1Z" clip-rule="evenodd"/></svg>
